src/lib/packages/icons/src/assets/filled/arrow-right-circle.svg

<svg width="24" height="24" viewBox="0 0 24 24" fill="none" xmlns="http://www.w3.org/2000/svg">
<path d="M12 2C6.477 2 2 6.477 2 12C2 17.523 6.477 22 12 22C17.523 22 22 17.523 22 12C22 6.477 17.523 2 12 2ZM16.6919 12.2871C16.6539 12.3791 16.599 12.462 16.53 12.531L13.53 15.531C13.384 15.677 13.192 15.751 13 15.751C12.808 15.751 12.616 15.678 12.47 15.531C12.177 15.238 12.177 14.763 12.47 14.47L14.1899 12.75H8C7.586 12.75 7.25 12.414 7.25 12C7.25 11.586 7.586 11.25 8 11.25H14.189L12.469 9.53003C12.176 9.23703 12.176 8.76199 12.469 8.46899C12.762 8.17599 13.237 8.17599 13.53 8.46899L16.53 11.469C16.599 11.538 16.6539 11.6209 16.6919 11.7129C16.7679 11.8969 16.7679 12.1031 16.6919 12.2871Z" fill="currentColor"/>
</svg>

<svg xmlns="http://www.w3.org/2000/svg" width="24" height="24" fill="none"><path fill="currentColor" d="M12 2C6.477 2 2 6.477 2 12s4.477 10 10 10 10-4.477 10-10S17.523 2 12 2Zm4.692 10.287a.748.748 0 0 1-.162.244l-3 3a.748.748 0 0 1-1.06 0 .75.75 0 0 1 0-1.061l1.72-1.72H8a.75.75 0 0 1 0-1.5h6.189l-1.72-1.72a.75.75 0 0 1 1.061-1.061l3 3a.748.748 0 0 1 .162.818Z"/></svg>
